dist/assets/footer-logo.svg

<?xml version="1.0" encoding="UTF-8"?>
<svg width="197px" height="40px" viewBox="0 0 197 40" version="1.1" xmlns="http://www.w3.org/2000/svg" xmlns:xlink="http://www.w3.org/1999/xlink">
    <!-- Generator: Sketch 43.2 (39069) - http://www.bohemiancoding.com/sketch -->
    <title>Group 2</title>
    <desc>Created with Sketch.</desc>
    <defs></defs>
    <g id="Symbols" stroke="none" stroke-width="1" fill="none" fill-rule="evenodd">
        <g id="footer" transform="translate(-110.000000, -110.000000)" fill="#BAB7CC">
            <g id="footer-logo" transform="translate(110.000000, 110.000000)">
                <g id="Group-2">
                    <path d="M32.6064232,16.3291274 L30.331804,16.3291274 L30.331804,20.2934775 L32.6064232,20.2934775 C34.086776,20.2934775 35.0091497,19.4749901 35.0091497,18.3264335 L35.0091497,18.2954675 C35.0091497,17.0054527 34.069695,16.3291274 32.6064232,16.3291274 M36.9963811,18.2798438 C36.9963811,20.7493812 34.9922111,22.0386923 32.5439352,22.0386923 L30.3319464,22.0386923 L30.3319464,25.5779638 L28.3754608,25.5779638 L28.3754608,14.5674442 L32.7652764,14.5674442 C35.3743983,14.5674442 36.9963811,16.0305871 36.9963811,18.248174 L36.9963811,18.2798438 Z M40.5905071,25.5779638 L40.5905071,14.5674442 L48.8448977,14.5674442 L48.8448977,16.2980206 L42.5455693,16.2980206 L42.5455693,19.1602631 L48.1303428,19.1602631 L48.1303428,20.8908395 L42.5455693,20.8908395 L42.5455693,23.8480912 L47.2577887,23.8480912 C48.9872394,21.6058723 50,19.2918685 50,17.0186836 C50,2.85526354 29.552626,-3.42660913 16.2643239,1.85661047 C9.99915739,4.34796486 5.25775796,8.98512137 2.55469056,14.5674442 L3.67634254,14.5674442 L3.67634254,19.1447801 L8.98995529,19.1447801 L8.98995529,14.5674442 L10.9464409,14.5674442 L10.9464409,25.5779638 L8.98995529,25.5779638 L8.98995529,20.9379922 L3.67634254,20.9379922 L3.67634254,25.5779638 L1.72128036,25.5779638 L1.72128036,16.4901505 C-0.535546056,22.3187937 -0.663653516,28.9701469 1.87643273,35.2175348 C6.18440192,45.8142362 34.8349236,37.1043486 45.7681836,25.5779638 L40.5905071,25.5779638 Z M20.6477341,21.1899428 L20.6477341,25.5779638 L18.6741675,25.5779638 L18.6741675,21.2370955 L14.2523251,14.5674442 L16.5753403,14.5674442 L19.6762526,19.4276966 L22.8262727,14.5674442 L25.0695766,14.5674442 L20.6477341,21.1899428 Z" id="hype_logo_white"></path>
                    <text id="Money-is-just-a-tool" font-family="Muli-Regular, Muli" font-size="15" font-weight="normal" letter-spacing="0.340909034">
                        <tspan x="59" y="25">Money is just a tool</tspan>
                    </text>
                </g>
            </g>
        </g>
    </g>
</svg>

<svg xmlns="http://www.w3.org/2000/svg" width="197" height="40" fill="#bab7cc" fill-rule="evenodd"><path d="M32.606 16.33h-2.275v3.964h2.275c1.48 0 2.403-.818 2.403-1.967v-.03c0-1.3-.94-1.966-2.403-1.966m4.4 1.95c0 2.47-2.004 3.76-4.452 3.76h-2.212v3.54h-1.956v-11.01h4.4c2.61 0 4.23 1.463 4.23 3.68v.032zm3.594 7.298v-11.01h8.254v1.73h-6.3v2.862h5.585v1.73h-5.585v2.957h4.712C48.987 21.606 50 19.292 50 17.02 50 2.855 29.553-3.427 16.264 1.857 10 4.348 5.258 8.985 2.555 14.567h1.122v4.577H9v-4.577h1.956v11.01H9v-4.64H3.676v4.64H1.72V16.5a25.28 25.28 0 0 0 .155 18.727c4.308 10.597 32.958 1.887 43.892-9.64H40.59zM20.648 21.2v4.388h-1.974v-4.34l-4.422-6.67h2.323l3.1 4.86 3.15-4.86h2.243L20.648 21.2z"/><text font-family="Muli-Regular, Muli" font-size="15" letter-spacing=".341"><tspan x="59" y="25">Money is just a tool</tspan></text></svg>
